packages/icons/svg/Fill/printer.svg

<svg fill="none" height="24" viewBox="0 0 24 24" width="24" xmlns="http://www.w3.org/2000/svg"><path clip-rule="evenodd" d="m7.5 19v-4h9l.002 4zm.51401-13.99993h7.98599v1.99999h-7.99299zm11.34899 1.99993h-1.363v-2c0-1.103-.822-2-1.833-2h-8.33398c-1.011 0-1.833.897-1.833 2v2h-1.363c-1.454 0-2.637 1.196-2.637 2.667v6.666c0 1.471 1.183 2.667 2.637 2.667h.863c0 1.103.897 2 2 2h8.99998c1.103 0 2-.897 2-2h.863c1.454 0 2.637-1.196 2.637-2.667v-6.666c0-1.471-1.183-2.667-2.637-2.667z" fill="#6b7280" fill-rule="evenodd"/></svg>

<svg width="24" height="24" viewBox="0 0 24 24" fill="none" xmlns="http://www.w3.org/2000/svg">
<g id="Icon/Fill/printer">
<path id="Mask" fill-rule="evenodd" clip-rule="evenodd" d="M7.5 19V15H16.5L16.502 19H7.5ZM8.014 5H16V7H8.007L8.014 5ZM19.363 7H18V5C18 3.897 17.178 3 16.167 3H7.833C6.822 3 6 3.897 6 5V7H4.637C3.183 7 2 8.196 2 9.667V16.333C2 17.804 3.183 19 4.637 19H5.5C5.5 20.103 6.397 21 7.5 21H16.5C17.603 21 18.5 20.103 18.5 19H19.363C20.817 19 22 17.804 22 16.333V9.667C22 8.196 20.817 7 19.363 7Z" fill="#000000"/>
</g>
</svg>
